CKC/img/icons/advant-03.svg

<svg width="42" height="44" viewBox="0 0 42 44" fill="none" xmlns="http://www.w3.org/2000/svg">
<path d="M15.8064 12.4617C17.3848 12.4617 18.6589 13.7358 18.6589 15.3142C18.6589 16.8926 17.3848 18.1667 15.8064 18.1667C14.228 18.1667 12.9539 16.8926 12.9539 15.3142C12.9539 13.7358 14.228 12.4617 15.8064 12.4617ZM25.3147 25.7734C26.8931 25.7734 28.1672 27.0475 28.1672 28.6259C28.1672 30.2043 26.8931 31.4784 25.3147 31.4784C23.7363 31.4784 22.4622 30.2043 22.4622 28.6259C22.4622 27.0475 23.7363 25.7734 25.3147 25.7734ZM13.7336 31.4784L11.0522 28.7971L27.3875 12.4617L30.0689 15.1431L13.7336 31.4784ZM33.2066 4.56978L34.3667 11.9102L41.0415 15.3142L37.6756 21.9701L41.0605 28.6259L34.3286 32.0299L33.1686 39.3703L25.7711 38.2103L20.5035 43.4779L15.2169 38.1343L7.87641 39.3513L6.69737 31.9538L0.0605469 28.5689L3.44552 21.913L0.0795636 15.3142L6.75442 11.8722L7.91444 4.60781L15.2739 5.80586L20.5605 0.47168L25.8092 5.7298L33.2066 4.56978ZM35.9641 16.9687L31.0197 14.3634L30.0689 8.86755L24.5541 9.66625L20.5605 5.80586L16.567 9.66625L11.0522 8.86755L10.1014 14.3634L5.15702 16.9687L7.62919 21.9701L5.15702 26.9715L10.1014 29.5767L11.0522 35.0726L16.567 34.2739L20.5605 38.1343L24.5541 34.2739L30.0689 35.0726L31.0197 29.5767L35.9641 26.9715L33.4919 21.9701L35.9641 16.9687Z" fill="#F9600A"/>
</svg>

<svg width="42" height="44" fill="none" xmlns="http://www.w3.org/2000/svg"><path d="M15.806 12.462a2.849 2.849 0 012.853 2.852 2.849 2.849 0 01-2.853 2.853 2.849 2.849 0 01-2.852-2.853 2.849 2.849 0 012.852-2.852zm9.509 13.311a2.849 2.849 0 012.852 2.853 2.849 2.849 0 01-2.852 2.852 2.849 2.849 0 01-2.853-2.852 2.849 2.849 0 012.853-2.853zm-11.581 5.705l-2.682-2.68 16.335-16.336 2.682 2.681-16.335 16.335zM33.207 4.57l1.16 7.34 6.675 3.404-3.366 6.656 3.384 6.656-6.731 3.404-1.16 7.34-7.398-1.16-5.268 5.268-5.286-5.344-7.34 1.217-1.18-7.397-6.636-3.385 3.385-6.656L.08 15.314l6.674-3.442 1.16-7.264 7.36 1.198L20.56.472l5.248 5.258 7.398-1.16zm2.757 12.399l-4.944-2.606-.951-5.495-5.515.798-3.993-3.86-3.994 3.86-5.515-.798-.95 5.495-4.945 2.606 2.472 5.001-2.472 5.002 4.944 2.605.951 5.496 5.515-.8 3.994 3.861 3.993-3.86 5.515.799.95-5.496 4.945-2.606-2.472-5 2.472-5.002z" fill="#F9600A"/></svg>
